X:1
T:Title
%%score { ( 1 3 ) | ( 2 4 ) }
L:1/8
M:4/4
K:A
V:1 treble nm="Grand Piano"
V:3 treble 
V:2 bass 
V:4 bass 
V:1
 z4 z2[Q:1/4=104] [CE]>[CA] | [Ec]>[Ec] [Ec]>[DB] [Fd]2 [Ec]2 | B4 A2 A>[FA] | %3
 [FA]>[EG] [GB]>[FA] [EG]2 [DF]2 | [CE]6 [CE]>[CA] | [Ec]>[Ec] [Ec]>[DB] [Fd]2 [Ec]2 | %6
 [^Dc]4 [DB]2 [DB]>[FA] | [EG]>[EG] [EG]>[CEA] [B,EG]2 [A,^DF]2 |[M:3/4] E6 |[M:1/4] z z/ F/ | %10
[M:4/4] G4 z2 [DE]2 | [EA]4 z4 | [GB]>[GB] [GB]>[EGB] [EA]2 [EGB]2 | [EAc]4 [CEA]2 [CE]>[CA] | %14
 [Ec]>[Ec] [Ec]>[DB] [Fd]2 [Ec]>[CGB] | [FA]>[FA] [FA]>[FA] [DB]2 [Fd]>[Fd] | %16
 [Fc]>[Fc] [B,FB]>[B,FB] [CEA]2 [B,EG]2 |[M:3/4] [DEB]4 [CEA]2 |] %18
V:2
 z4 z2 [A,,A,]>[A,,A,] | [A,,A,]>[A,,A,] [A,,A,]>[A,,A,] [A,,A,]2 [A,,A,]2 | %2
 [E,G,D]4 [F,A,C]2 [F,CF]>[E,C] | [D,D]>[D,D] [D,D]>[D,D] [D,D]2 [D,A,]2 | %4
 [A,,A,]6 [A,,A,]>[A,,A,] | [A,,A,]>[A,,A,] [A,,A,]>[A,,A,] [A,,A,]2 [A,,A,]2 | %6
 [B,,A,]4 [B,,G,]2 [B,,F,]>[B,,B,] | [B,,B,]>[B,,B,] [B,,B,]>B,, B,,2 B,,2 |[M:3/4] [E,G,]6 | %9
[M:1/4] [E,G,]>[E,A,] |[M:4/4] D4 z4 | E,>E, E,>E, [E,C]2 [E,A,C]>[E,CE] | %12
 [E,E]>[E,E] [E,E]>D, C,2 B,,2 | A,,4 A,,2 [A,,A,]>[A,,A,] | %14
 [A,,A,]>[A,,A,] [A,,A,]>[A,,A,] [A,,A,]2 [A,,A,]>A,, | %15
 [D,D]>[D,D] [D,D]>[D,D] [D,F,]2 [B,,B,]>[B,,B,] | [C,^A,]>[C,A,] D,>D, E,2 E,2 | %17
[M:3/4] E,4 A,,2 |] %18
V:3
 x8 | x8 | x8 | x8 | x8 | x8 | x8 | x8 |[M:3/4] x6 |[M:1/4] E2 | %10
[M:4/4] z z/ B,/ B,>B, [A,DF]2 G,>G, | C>C C>C E2 E>A | x8 | x8 | x8 | x8 | x8 |[M:3/4] x6 |] %18
V:4
 x8 | x8 | x8 | x8 | x8 | x8 | x8 | x8 |[M:3/4] x6 |[M:1/4] x2 |[M:4/4] [E,B,]>E, E,>E, E,2 E,>E, | %11
 x8 | x8 | x8 | x8 | x8 | x8 |[M:3/4] x6 |] %18

